assets/Up! button/Flat/up!_button_flat.svg

<svg width="32" height="32" viewBox="0 0 32 32" fill="none" xmlns="http://www.w3.org/2000/svg">
<path d="M2 6C2 3.79086 3.79086 2 6 2H26C28.2091 2 30 3.79086 30 6V26C30 28.2091 28.2091 30 26 30H6C3.79086 30 2 28.2091 2 26V6Z" fill="#00A6ED"/>
<path d="M16 10C15.4477 10 15 10.4477 15 11V21C15 21.5523 15.4477 22 16 22C16.5523 22 17 21.5523 17 21V16.9777H19.4995C20.4671 16.9777 21.3612 16.6439 22.0193 16.0101C22.6808 15.373 23.0469 14.4867 23.0469 13.4972C23.0469 11.4456 21.4982 10 19.4995 10H16ZM19.4995 14.9777H17V12H19.4995C20.4469 12 21.0469 12.6027 21.0469 13.4972C21.0469 13.9808 20.8757 14.3347 20.6319 14.5696C20.3846 14.8078 20.005 14.9777 19.4995 14.9777Z" fill="white"/>
<path d="M7 11.0781C7 10.5258 6.55228 10.0781 6 10.0781C5.44772 10.0781 5 10.5258 5 11.0781V17.9531C5 20.1759 6.78223 22 9.00781 22C11.2334 22 13.0156 20.1759 13.0156 17.9531V11.0781C13.0156 10.5258 12.5679 10.0781 12.0156 10.0781C11.4633 10.0781 11.0156 10.5258 11.0156 11.0781V17.9531C11.0156 19.0958 10.1046 20 9.00781 20C7.91105 20 7 19.0958 7 17.9531V11.0781Z" fill="white"/>
<path d="M26.0117 10C26.564 10 27.0117 10.4477 27.0117 11V17.9062C27.0117 18.4585 26.564 18.9062 26.0117 18.9062C25.4594 18.9062 25.0117 18.4585 25.0117 17.9062V11C25.0117 10.4477 25.4594 10 26.0117 10Z" fill="white"/>
<path d="M26.0117 21.7266C26.633 21.7266 27.1367 21.2229 27.1367 20.6016C27.1367 19.9802 26.633 19.4766 26.0117 19.4766C25.3904 19.4766 24.8867 19.9802 24.8867 20.6016C24.8867 21.2229 25.3904 21.7266 26.0117 21.7266Z" fill="white"/>
</svg>

<svg xmlns="http://www.w3.org/2000/svg" width="32" height="32" fill="none"><path fill="#00A6ED" d="M2 6a4 4 0 0 1 4-4h20a4 4 0 0 1 4 4v20a4 4 0 0 1-4 4H6a4 4 0 0 1-4-4V6Z"/><path fill="#fff" d="M16 10a1 1 0 0 0-1 1v10a1 1 0 1 0 2 0v-4.022h2.5c.967 0 1.861-.334 2.52-.968.66-.637 1.027-1.523 1.027-2.513 0-2.051-1.549-3.497-3.547-3.497H16Zm3.5 4.978H17V12h2.5c.947 0 1.547.603 1.547 1.497 0 .484-.171.838-.415 1.073-.247.238-.627.408-1.133.408ZM7 11.078a1 1 0 1 0-2 0v6.875C5 20.176 6.782 22 9.008 22c2.225 0 4.008-1.824 4.008-4.047v-6.875a1 1 0 1 0-2 0v6.875c0 1.143-.911 2.047-2.008 2.047S7 19.096 7 17.953v-6.875ZM26.012 10a1 1 0 0 1 1 1v6.906a1 1 0 1 1-2 0V11a1 1 0 0 1 1-1ZM26.012 21.727a1.125 1.125 0 1 0 0-2.25 1.125 1.125 0 0 0 0 2.25Z"/></svg>
